svgs/thin/curling-stone.svg

<svg xmlns="http://www.w3.org/2000/svg" viewBox="0 0 576 512"><!--! Font Awesome Pro 6.6.0 by @fontawesome - https://fontawesome.com License - https://fontawesome.com/license (Commercial License) Copyright 2024 Fonticons, Inc. --><path d="M192 104c0-30.9 25.1-56 56-56l160 0c4.4 0 8-3.6 8-8s-3.6-8-8-8L248 32c-39.8 0-72 32.2-72 72l0 56-24 0c-30.9 0-56 25.1-56 56l0 9.1C41.7 232.9 0 279.6 0 336l0 32c0 61.9 50.1 112 112 112l352 0c61.9 0 112-50.1 112-112l0-32c0-56.4-41.7-103.1-96-110.9l0-9.1c0-30.9-25.1-56-56-56l-232 0 0-56zM464 224l-352 0 0-8c0-22.1 17.9-40 40-40l32 0 240 0c22.1 0 40 17.9 40 40l0 8zM112 464c-53 0-96-43-96-96l0-8 544 0 0 8c0 53-43 96-96 96l-352 0zM16 344l0-8c0-53 43-96 96-96l352 0c53 0 96 43 96 96l0 8L16 344z"/></svg>

<svg xmlns="http://www.w3.org/2000/svg" viewBox="0 0 576 512"><!--! Font Awesome Pro 6.4.0 by @fontawesome - https://fontawesome.com License - https://fontawesome.com/license (Commercial License) Copyright 2023 Fonticons, Inc. --><path d="M192 104c0-30.9 25.1-56 56-56H408c4.4 0 8-3.6 8-8s-3.6-8-8-8H248c-39.8 0-72 32.2-72 72v56H152c-30.9 0-56 25.1-56 56v9.1C41.7 232.9 0 279.6 0 336v32c0 61.9 50.1 112 112 112H464c61.9 0 112-50.1 112-112V336c0-56.4-41.7-103.1-96-110.9V216c0-30.9-25.1-56-56-56H192V104zM464 224H112l0-8c0-22.1 17.9-40 40-40h32H424c22.1 0 40 17.9 40 40v8zM112 464c-53 0-96-43-96-96v-8H560v8c0 53-43 96-96 96H112zM16 344v-8c0-53 43-96 96-96H464c53 0 96 43 96 96v8H16z"/></svg>
